img/facebook-icon.svg

<svg width="24" height="24" fill="none" xmlns="http://www.w3.org/2000/svg"><path fill-rule="evenodd" clip-rule="evenodd" d="M24 12c0 6.6274-5.3726 12-12 12-6.62742 0-12-5.3726-12-12C0 5.37258 5.37258 0 12 0c6.6274 0 12 5.37258 12 12Zm-9.5714.9H13V18h-2.2857v-5.1H9v-2.4h1.7143V8.82c0-1.8258 1.1017-2.82 2.6531-2.82.7429 0 1.4463.0582 1.6326.084V8.1h-.8571C13 8.1 13 8.682 13 9.3v1.2h2l-.5714 2.4Z" fill="#FCFCFC"/></svg>

<svg width="24" height="24" viewBox="0 0 24 24" fill="none" xmlns="http://www.w3.org/2000/svg">
<path fill-rule="evenodd" clip-rule="evenodd" d="M24 12C24 18.6274 18.6274 24 12 24C5.37258 24 0 18.6274 0 12C0 5.37258 5.37258 0 12 0C18.6274 0 24 5.37258 24 12ZM14.4286 12.9H13V18H10.7143V12.9H9V10.5H10.7143V8.82C10.7143 6.9942 11.816 6 13.3674 6C14.1103 6 14.8137 6.0582 15 6.084V8.1H14.1429C13 8.1 13 8.682 13 9.3V10.5H15L14.4286 12.9Z" fill="#FCFCFC"/>
</svg>
